.local/share/icons/Gruvbox-Plus-Dark/actions/16/amarok_cart_add.svg

<svg width="16" height="16" version="1.1" xmlns="http://www.w3.org/2000/svg">
  <defs>
    <style id="current-color-scheme" type="text/css">.ColorScheme-Text { color:#ebdbb2; } .ColorScheme-Highlight { color:#458588; }</style>
  </defs>
  <path class="ColorScheme-Text" d="m5 1c-0.554 0-1 0.446-1 1v3h-2c-0.554 0-1 0.446-1 1v8c0 0.554 0.446 1 1 1h7v-4h2v-2h4v-3c0-0.554-0.446-1-1-1h-2v-3c0-0.554-0.446-1-1-1h-6zm1 2h4v2h-4v-2zm6 7v2h-2v2h2v2h2v-2h2v-2h-2v-2h-2z" fill="currentColor"/>
</svg>

<svg xmlns="http://www.w3.org/2000/svg" width="16" height="16" viewBox="0 0 16 16">
 <defs>
  <style id="current-color-scheme" type="text/css">
   .ColorScheme-Text { color:#ebdbb2; } .ColorScheme-Highlight { color:#458588; }
  </style>
 </defs>
 <path style="fill:currentColor" class="ColorScheme-Text" d="M 5 1 C 4.446 1 4 1.446 4 2 L 4 5 L 2 5 C 1.446 5 1 5.446 1 6 L 1 14 C 1 14.554 1.446 15 2 15 L 9 15 L 9 11 L 11 11 L 11 9 L 15 9 L 15 6 C 15 5.446 14.554 5 14 5 L 12 5 L 12 2 C 12 1.446 11.554 1 11 1 L 5 1 z M 6 3 L 10 3 L 10 5 L 6 5 L 6 3 z M 12 10 L 12 12 L 10 12 L 10 14 L 12 14 L 12 16 L 14 16 L 14 14 L 16 14 L 16 12 L 14 12 L 14 10 L 12 10 z"/>
</svg>
